.local/share/icons/Gruvbox-Plus-Dark/actions/16/udiskie-unmount.svg

<svg xmlns="http://www.w3.org/2000/svg" width="16" height="16" version="1.1">
 <defs>
  <style id="current-color-scheme" type="text/css">
   .ColorScheme-Text { color:#555555; } .ColorScheme-Highlight { color:#4285f4; } .ColorScheme-NeutralText { color:#ff9800; } .ColorScheme-PositiveText { color:#4caf50; } .ColorScheme-NegativeText { color:#f44336; }
  </style>
 </defs>
 <path style="fill:currentColor" class="ColorScheme-Text" d="M 8 1 A 7 7 0 0 0 1 8 A 7 7 0 0 0 1.0664062 8.9492188 L 3.4003906 7.1992188 A 1.0001 1.0001 0 0 1 4.4472656 7.1054688 A 1.0001 1.0001 0 0 1 5 8 L 5 9 L 6.2675781 9 A 2 2 0 0 1 6 8 A 2 2 0 0 1 8 6 A 2 2 0 0 1 10 8 A 2 2 0 0 1 9.5859375 9.1914062 A 1.0001 1.0001 0 0 1 10 10 L 10 12 A 1.0001 1.0001 0 0 1 9 13 L 5 13 L 5 14 A 1.0001 1.0001 0 0 1 4.9550781 14.292969 A 7 7 0 0 0 8 15 A 7 7 0 0 0 15 8 A 7 7 0 0 0 8 1 z M 4 8 L 0 11 L 4 14 L 4 12 L 9 12 L 9 10 L 4 10 L 4 8 z"/>
</svg>

<svg width="16" height="16" version="1.1" xmlns="http://www.w3.org/2000/svg">
  <defs>
    <style id="current-color-scheme" type="text/css">.ColorScheme-Text { color:#ebdbb2; } .ColorScheme-Highlight { color:#458588; }</style>
  </defs>
  <path class="ColorScheme-Text" d="m8 1a7 7 0 0 0-7 7 7 7 0 0 0 0.06641 0.9492l2.334-1.75a1 1 0 0 1 1.047-0.09375 1 1 0 0 1 0.5527 0.8945v1h1.268a2 2 0 0 1-0.2676-1 2 2 0 0 1 2-2 2 2 0 0 1 2 2 2 2 0 0 1-0.4141 1.191 1 1 0 0 1 0.4141 0.8086v2a1 1 0 0 1-1 1h-4v1a1 1 0 0 1-0.04492 0.293 7 7 0 0 0 3.045 0.707 7 7 0 0 0 7-7 7 7 0 0 0-7-7zm-4 7-4 3 4 3v-2h5v-2h-5v-2z" fill="currentColor"/>
</svg>
